dist/svgs/crypto-icons/icons/snrg.svg

<?xml version="1.0" encoding="UTF-8" standalone="yes"?>
<svg xmlns="http://www.w3.org/2000/svg" xmlns:xlink="http://www.w3.org/1999/xlink" width="512px" height="512px" viewBox="0 0 384 384" version="1.1">
  <g id="surface1">
    <path style=" stroke:none;fill-rule:nonzero;fill:rgb(0%,0%,0%);fill-opacity:1;" d="M 190.308594 0 L 38.0625 99.128906 L 38.0625 169.671875 L 110.800781 216.359375 L 236.488281 134.824219 L 191.832031 105.894531 L 110.464844 159.519531 L 71.554688 134.316406 L 190.308594 57.175781 L 345.429688 158.335938 L 345.429688 101.496094 Z M 190.308594 0 "/>
    <path style=" stroke:none;fill-rule:nonzero;fill:rgb(0%,0%,0%);fill-opacity:1;" d="M 147.171875 248.667969 L 191.660156 277.765625 L 273.199219 224.140625 L 312.105469 249.347656 L 193.183594 326.484375 L 38.0625 225.324219 L 38.0625 282.164062 L 193.183594 383.660156 L 345.429688 284.363281 L 345.429688 213.992188 L 272.859375 167.132812 Z M 147.171875 248.667969 "/>
  </g>
</svg>

<svg xmlns="http://www.w3.org/2000/svg" viewBox="0 0 384 384"><path d="M190.309 0L38.063 99.129v70.543l72.738 46.687 125.687-81.535-44.656-28.93-81.367 53.626-38.91-25.204 118.754-77.14 155.12 101.16v-56.84zm0 0"/><path d="M147.172 248.668l44.488 29.098 81.54-53.625 38.905 25.207-118.921 77.136-155.121-101.16v56.84l155.12 101.496 152.247-99.297v-70.37l-72.57-46.86zm0 0"/></svg>
